src/pos-icons/sign-caution.svg

<svg height="24" viewBox="0 0 24 24" width="24" xmlns="http://www.w3.org/2000/svg"><path d="m2 3h20v10h-4v8h-2v-8h-8v8h-2v-8h-4zm16.97 8 1.03-1.03v-2.82l-3.85 3.85zm-5.65 0 6-6h-2.82l-6 6zm-5.66 0 6-6h-2.83l-6 6zm-2.48-6-1.18 1.18v2.82l4-4z"/></svg>

<?xml version="1.0" encoding="UTF-8"?><!DOCTYPE svg PUBLIC "-//W3C//DTD SVG 1.1//EN" "http://www.w3.org/Graphics/SVG/1.1/DTD/svg11.dtd"><svg xmlns="http://www.w3.org/2000/svg" xmlns:xlink="http://www.w3.org/1999/xlink" version="1.1" id="mdi-sign-caution" width="24" height="24" viewBox="0 0 24 24"><path d="M2,3H22V13H18V21H16V13H8V21H6V13H2V3M18.97,11L20,9.97V7.15L16.15,11H18.97M13.32,11L19.32,5H16.5L10.5,11H13.32M7.66,11L13.66,5H10.83L4.83,11H7.66M5.18,5L4,6.18V9L8,5H5.18Z" /></svg>
